images/Icon 1.svg

<svg width="264" height="112" viewBox="0 0 264 112" fill="none" xmlns="http://www.w3.org/2000/svg">
<rect width="264" height="112" rx="4" fill="#F4F4FD"/>
<path d="M161.546 68.1952L144.66 51.1851L146.534 41.9541C147.018 42.1429 147.532 42.2416 148.051 42.2453H148.064C150.448 42.2735 152.404 40.3633 152.432 37.9788C152.461 35.5943 150.55 33.6384 148.166 33.6101C145.781 33.582 143.825 35.4921 143.797 37.8767C143.791 38.3869 143.875 38.8941 144.047 39.3749L134.127 40.5856L117.945 24.32C117.747 24.1175 117.476 24.0023 117.192 24C116.912 24.0015 116.644 24.1129 116.445 24.3104L113.42 27.3184C113.004 27.7349 113.004 28.4101 113.42 28.8267L115.048 30.4779C108.742 42.0737 110.79 56.4335 120.087 65.8037C120.172 65.8853 120.271 65.9513 120.379 65.9989C120.312 66.3599 120.277 66.7261 120.275 67.0933V79.4667H107.475C104.531 79.4701 102.145 81.856 102.141 84.8V86.9333C102.141 87.5224 102.619 88 103.208 88H152.275C152.864 88 153.341 87.5224 153.341 86.9333V84.8C153.338 81.856 150.952 79.4701 148.008 79.4667H135.208V73.9829C137.213 74.4035 139.256 74.6179 141.305 74.6229C146.221 74.6176 151.059 73.392 155.385 71.056L157.021 72.7019C157.22 72.9044 157.491 73.0196 157.775 73.0219C158.055 73.0204 158.323 72.9089 158.521 72.7115L161.546 69.7035C161.963 69.2869 161.963 68.6117 161.546 68.1952ZM146.56 36.4661C147.395 35.6352 148.746 35.6389 149.577 36.4743C150.407 37.3096 150.404 38.6604 149.568 39.4912C149.169 39.8889 148.627 40.1121 148.063 40.112H148.057C146.879 40.1059 145.929 39.1459 145.935 37.9676C145.938 37.4036 146.164 36.8639 146.564 36.4661H146.56ZM144.049 43.4752L142.852 49.3664L140.501 47.0016L144.049 43.4752ZM142.837 41.6715L138.997 45.4891L136.026 42.5024L142.837 41.6715ZM148.008 81.6C149.775 81.6 151.208 83.0327 151.208 84.8V85.8667H104.275V84.8C104.275 83.0327 105.707 81.6 107.475 81.6H148.008ZM133.075 77.3333V79.4667H122.408V77.3333H133.075ZM122.408 75.2V67.0933C122.408 64.5056 124.801 62.4 127.741 62.4C130.682 62.4 133.075 64.5056 133.075 67.0933V75.2H122.408ZM135.208 71.808V67.0933C135.208 63.3291 131.859 60.2667 127.741 60.2667C125.079 60.2259 122.59 61.5809 121.179 63.8389C113.064 55.2913 111.236 42.5485 116.622 32.0647L153.826 69.4816C148.081 72.404 141.495 73.2268 135.208 71.808ZM157.786 70.4405L156.283 68.9291L117.181 29.5915L115.672 28.0789L117.181 26.5749L133.051 42.5344C133.059 42.5344 133.063 42.5483 133.071 42.5536L159.3 68.9365L157.786 70.4405Z" fill="#2E2F42"/>
<path d="M127.751 64.5333H127.741C125.974 64.5306 124.539 65.9612 124.537 67.7285C124.534 69.4958 125.965 70.9306 127.732 70.9333H127.741C129.509 70.936 130.944 69.5054 130.946 67.7381C130.949 65.9708 129.518 64.536 127.751 64.5333ZM128.498 68.4896C128.297 68.6893 128.025 68.801 127.741 68.8C127.152 68.7969 126.677 68.3169 126.68 67.7278C126.682 67.4458 126.795 67.176 126.995 66.977C127.193 66.7796 127.461 66.6681 127.741 66.6666C128.331 66.6697 128.806 67.1497 128.803 67.7388C128.801 68.0208 128.688 68.2906 128.488 68.4896H128.498Z" fill="#4D5AE5"/>
</svg>

<svg xmlns="http://www.w3.org/2000/svg" width="264" height="112" fill="none"><rect width="264" height="112" fill="#F4F4FD" rx="4"/><path fill="#2E2F42" d="m161.546 68.195-16.886-17.01 1.874-9.23c.484.188.998.287 1.517.29h.013a4.318 4.318 0 1 0-4.017-2.87l-9.92 1.21-16.182-16.265a1.065 1.065 0 0 0-.753-.32c-.28.002-.548.113-.747.31l-3.025 3.008a1.067 1.067 0 0 0 0 1.509l1.628 1.65a29.885 29.885 0 0 0 5.039 35.327c.085.081.184.147.292.195a6.182 6.182 0 0 0-.104 1.094v12.374h-12.8a5.34 5.34 0 0 0-5.334 5.333v2.133c0 .59.478 1.067 1.067 1.067h49.067c.589 0 1.066-.478 1.066-1.067V84.8a5.34 5.34 0 0 0-5.333-5.333h-12.8v-5.484c2.005.42 4.048.635 6.097.64a29.7 29.7 0 0 0 14.08-3.567l1.636 1.646c.199.202.47.318.754.32.28-.002.548-.113.746-.31l3.025-3.008a1.066 1.066 0 0 0 0-1.509ZM146.56 36.466a2.133 2.133 0 1 1 1.503 3.646h-.006a2.133 2.133 0 0 1-1.493-3.646h-.004Zm-2.511 7.01-1.197 5.89-2.351-2.364 3.548-3.527Zm-1.212-1.804-3.84 3.817-2.971-2.987 6.811-.83Zm5.171 39.928a3.2 3.2 0 0 1 3.2 3.2v1.067h-46.933V84.8a3.2 3.2 0 0 1 3.2-3.2h40.533Zm-14.933-4.267v2.134h-10.667v-2.134h10.667ZM122.408 75.2v-8.107c0-2.587 2.393-4.693 5.333-4.693 2.941 0 5.334 2.106 5.334 4.693V75.2h-10.667Zm12.8-3.392v-4.715c0-3.764-3.349-6.826-7.467-6.826a7.6 7.6 0 0 0-6.562 3.572 27.739 27.739 0 0 1-4.557-31.774l37.204 37.417a27.643 27.643 0 0 1-18.618 2.326Zm22.578-1.368-1.503-1.51-39.102-39.339-1.509-1.512 1.509-1.504 15.87 15.96c.008 0 .012.013.02.019L159.3 68.936l-1.514 1.504Z"/><path fill="#4D5AE5" d="M127.751 64.533h-.01a3.2 3.2 0 1 0-.009 6.4h.009a3.2 3.2 0 1 0 .01-6.4Zm.747 3.957a1.067 1.067 0 1 1-.757-1.823 1.067 1.067 0 0 1 .747 1.823h.01Z"/></svg>
